verbatimtex
%&latex
\documentclass{article}
\usepackage{palatino}
\usepackage[latin1]{inputenc}
\begin{document}
etex

beginfig( 1 );
label( btex Hällö, dies is' \LaTeX! etex, origin );
endfig;

end.
